third_party/noto/noto_2/emoji_u1f96f.svg

<svg enable-background="new 0 0 128 128" version="1.1" viewBox="0 0 128 128" xmlns="http://www.w3.org/2000/svg"><path d="m94.23 68.55s27.81-5.46 29.13 5.04c0.77 6.19-1.17 17.57-11.65 26.92-8.7 7.76-23.24 14.29-47.23 13.85-19.55-0.35-32.85-5.04-41.88-10.23-15.12-8.69-18.11-20.47-17.32-27.86 1.13-10.6 18.12-15.46 18.89-15.9l70.06 8.18z" fill="#F1B34F"/><path d="m7.32 79.1s16.04 26.62 57.78 26.76c45.19 0.16 59-26.83 58.25-32.28-1.42-10.45-25.5-12.58-25.5-12.58l-57.46 13.54-33.07-3.63v8.19z" fill="#FADFB1"/><path d="m7.49 69.47s-2.6 3.12-2.14 9.07c0.41 5.28 5.37 13.06 14.04 15.87 7.67 2.49 13.3-0.37 21.24 2.2s15.26 10.37 25.39 9.76 15.51-7.85 22.82-8.91c10.98-1.59 16.23 1.36 24.53-6.83 9.15-9.03 9.2-17.44 9.15-19.53-0.1-4.22-3.09-6.5-3.09-6.5l-100.78 3.69-11.16 1.18z" fill="#fff"/><radialGradient id="a" cx="64.214" cy="44.095" r="65.576" gradientTransform="matrix(1 -.0065358 .0042612 .652 -.1865 15.766)" gradientUnits="userSpaceOnUse"><stop stop-color="#F1B14A" offset=".1616"/><stop stop-color="#F1B049" offset=".1688"/><stop stop-color="#E89825" offset=".3704"/><stop stop-color="#E28810" offset=".5354"/><stop stop-color="#E08308" offset=".6425"/><stop stop-color="#E1860D" offset=".7125"/><stop stop-color="#E5901B" offset=".7924"/><stop stop-color="#EBA031" offset=".877"/><stop stop-color="#F1B14A" offset=".947"/></radialGradient><path d="m64.64 13.48c-39.64 0-59.5 20.73-61.06 44.37-0.6 9.1 2.36 15.06 8.81 20.74 11.26 9.9 31.81 16.1 53.04 16.33 22.75 0.25 40.01-5.51 53.22-22.94 4.31-5.68 4.78-8.91 4.96-15.23 0.55-19.82-17.28-43.27-58.97-43.27z" fill="url(#a)"/><path d="m44.31 49.96c-0.45-0.99 3.03-2.2 4.76-3.46 1.9-1.39 2.25-3.03 2.94-3.12s3.72 0.85 11.51 0.95c6.84 0.09 11.17-1.73 11.77-1.21 0.61 0.52 1.47 1.99 3.38 3.9 1.65 1.65 3.55 2.77 3.64 3.38s-4.29 1.54-5.06 1.71c-0.78 0.17-25.77 0.1-25.77 0.1s-1.46-0.43-2.67-0.77c-1.21-0.36-4.07-0.53-4.5-1.48z" fill="#FCDE8C"/><path d="m63.78 55.93c4.41 0 6.82-1.29 9.78-2.34 3.09-1.09 5.63-1.99 5.63-1.99s-4.59-4.67-14.72-4.67-14.54 4.76-14.54 4.76 8.66 4.24 13.85 4.24z" fill="#fff"/><path d="m37.38 29c-1.19 0.27-1.23 2.09-1.59 3.81-0.73 3.46 0.91 6.26 4.02 5.37 3.56-1.02 2.75-4.51 0.66-6.83-1.22-1.34-1.87-2.63-3.09-2.35z" fill="#F5E5C7"/><path d="m54.08 26.55c-0.32 0.86-3.13 1.45-5.99 1.13-2.12-0.24-3.9-2.36-2.77-4.72 1.15-2.39 4.01-2.67 5.95-0.77 1.99 1.95 3.16 3.41 2.81 4.36z" fill="#F5E5C7"/><path d="m60.21 25c-0.68-0.14-2.91 1.77-3.4 3.9-0.56 2.38 1.04 3.36 2.36 3.5 1.63 0.17 2.81-1.09 2.91-2.72 0.08-1.62-1.14-4.53-1.87-4.68z" fill="#F5E5C7"/><path d="m25.66 50.06c0.47 1.13 2.27 0.84 4.03 0.89 3.53 0.1 6-2 4.58-4.91-1.63-3.33-4.93-1.9-6.83 0.56-1.11 1.44-2.26 2.31-1.78 3.46z" fill="#F5E5C7"/><path d="m13.42 49.89c-1.22-0.06-1.73 1.69-2.53 3.26-1.61 3.14-0.77 6.28 2.46 6.24 3.7-0.04 3.83-3.63 2.43-6.41-0.82-1.62-1.11-3.04-2.36-3.09z" fill="#F5E5C7"/><path d="m104.1 47.44c1.21-0.15 1.42-1.96 1.96-3.64 1.06-3.37-0.29-6.32-3.47-5.74-3.65 0.66-3.18 4.22-1.33 6.73 1.08 1.46 1.6 2.8 2.84 2.65z" fill="#F5E5C7"/><path d="m38.35 65.69c-0.58-0.42-2.42 0.13-4.06 0.78-3.28 1.3-4.72 4.21-2.27 6.31 2.81 2.41 5.28-0.2 6.06-3.21 0.46-1.75 0.97-3.37 0.27-3.88z" fill="#F5E5C7"/><path d="m32.58 62.34c0.28-0.56-0.47-2.08-1.22-3.29-0.87-1.41-1.86-2.85-3.24-3.24-4.44-1.25-6.04 4.41-3.06 6.22 1.09 0.66 2.24 0.7 3.51 0.77 1.9 0.08 3.74 0.08 4.01-0.46z" fill="#F5E5C7"/><path d="m22.49 46.03c-0.18 1.13-5.13 2.07-7.66 0.54-3.03-1.84-1.4-6.08 2.21-5.77 3.09 0.28 5.65 3.95 5.45 5.23z" fill="#F5E5C7"/><path d="m25.05 39.86c1.17 0.32 4.55-2.21 5.54-4.05 0.72-1.34 1.3-4.67-1.04-5.72-2.61-1.17-4.84 0.55-5.5 2.7-0.84 2.84-0.04 6.79 1 7.07z" fill="#F5E5C7"/><path d="m45.05 53.65c0.19 0.87-1.49 5.63-5.41 5.81-2.7 0.12-5.04-3.51-1.67-5.86 2.56-1.77 6.95-0.58 7.08 0.05z" fill="#F5E5C7"/><path d="m48.43 61.24c-0.77-0.65-4.82 2.25-6.04 4.37-0.72 1.26-1.22 3.56 1.76 4.91 2.88 1.31 4.46-0.9 4.82-2.7s0.05-6.08-0.54-6.58z" fill="#F5E5C7"/><path d="m52.49 75.54c0.99 1.85 6.12 1.05 7.34 0.68 1.76-0.54 4.25-2.18 2.66-5.59-1.31-2.79-4.73-2.21-6.8-0.45-1.79 1.51-3.88 4.1-3.2 5.36z" fill="#F5E5C7"/><path d="m69.02 69.01c-1.06 0.78-0.22 5.55 0.41 6.98 0.81 1.85 3.42 2.57 5.18 1.22 2.03-1.56 1.71-4.14 0.41-5.54-0.99-1.05-4.97-3.43-6-2.66z" fill="#F5E5C7"/><path d="m76.63 66.08c-0.39 0.35-3.87 0.59-6.35-1.53-1.43-1.22-1.39-4.11 0.05-5.18 1.58-1.17 3.74-0.81 5.13 1.22 0.87 1.25 1.62 5.08 1.17 5.49z" fill="#F5E5C7"/><path d="m81.9 64.37c0.7 0.61 5.13-0.14 6.8-2.07 0.91-1.06 2.21-3.33 0.45-4.95s-3.83-1.31-5.63 0.9c-1.34 1.63-2.34 5.49-1.62 6.12z" fill="#F5E5C7"/><path d="m99.06 51.08c-0.34 1.36-5.31 1.92-7.3 0.99-2.03-0.95-1.67-3.24-1.26-4.23s1.4-2.16 4.01-1.44c2.76 0.76 4.78 3.78 4.55 4.68z" fill="#F5E5C7"/><path d="m92.12 66.48c-1.11-0.31-1.76 1.21-2.48 1.89-0.9 0.86-4.68 5.23 0.14 6.35 4.83 1.13 3.51-4.19 3.33-5.27-0.12-0.75-0.18-2.74-0.99-2.97z" fill="#F5E5C7"/><path d="m97.3 63.65c-0.4 1.15 1.85 3.42 2.93 4.73s3.47 2.52 4.86-0.09c1.4-2.61-0.77-4.23-2.7-4.68-1.93-0.46-4.73-1-5.09 0.04z" fill="#F5E5C7"/><path d="m114.56 54.37c0 0.77-2.7 2.93-5.72 3.02-2.25 0.07-3.92-0.75-3.92-2.97 0-2.25 2.03-3.51 4.55-2.97 1.45 0.3 5.09 1.7 5.09 2.92z" fill="#F5E5C7"/><path d="m109.33 47.84c0.23 0.9 2.93 1.17 4.86 1.22 1.94 0.05 4.32-0.63 3.42-3.29s-3.56-1.98-4.55-1.49c-0.98 0.49-4.03 2.34-3.73 3.56z" fill="#F5E5C7"/><path d="m100.91 30.04c-0.81 1.17 0.72 3.6 2.12 4.68s3.33 1.76 4.46-0.14c1.13-1.89-0.86-3.6-2.07-4.37-1.22-0.75-3.72-1.31-4.51-0.17z" fill="#F5E5C7"/><path d="m96.36 32.25c-0.53-0.33-3.33 0.38-4.95 1.85-1.68 1.52-2.3 3.74-0.27 5.32 1.96 1.52 4.09 0.04 4.95-1.98 0.81-1.9 0.87-4.82 0.27-5.19z" fill="#F5E5C7"/><path d="m74.47 30.99c0.54-0.75-0.45-4.77-1.71-6.31-1.26-1.53-2.84-2.12-4.59-0.81-1.38 1.03-1.89 3.83 0.09 5.27 2.15 1.58 5.62 2.66 6.21 1.85z" fill="#F5E5C7"/><path d="m76.04 24.77c0.67 0.49 3.11 0.14 4.77-0.95s1.91-2.82 0.95-4.01c-1.17-1.44-3.06-0.9-4.41 0.86-1.18 1.53-2.16 3.47-1.31 4.1z" fill="#F5E5C7"/><path d="m80.05 30.58c0.54 1.44 5.95 1.13 7.52 0.45 1.58-0.68 2.68-2.11 1.8-4.19-0.99-2.34-2.55-2.35-3.69-2.03-2.25 0.64-6.16 4.36-5.63 5.77z" fill="#F5E5C7"/></svg>

<?xml version="1.0" encoding="utf-8"?>
<!-- Generator: Adobe Illustrator 25.2.3, SVG Export Plug-In . SVG Version: 6.00 Build 0)  -->
<svg version="1.1" id="Layer_2" xmlns="http://www.w3.org/2000/svg" xmlns:xlink="http://www.w3.org/1999/xlink" x="0px" y="0px"
	 viewBox="0 0 128 128" style="enable-background:new 0 0 128 128;" xml:space="preserve">
<path style="fill:#F1B34F;" d="M94.23,68.55c0,0,27.81-5.46,29.13,5.04c0.77,6.19-1.17,17.57-11.65,26.92
	c-8.7,7.76-23.24,14.29-47.23,13.85c-19.55-0.35-32.85-5.04-41.88-10.23C7.48,95.44,4.49,83.66,5.28,76.27
	c1.13-10.6,18.12-15.46,18.89-15.9L94.23,68.55z"/>
<path style="fill:#FADFB1;" d="M7.32,79.1c0,0,16.04,26.62,57.78,26.76c45.19,0.16,59-26.83,58.25-32.28
	C121.93,63.13,97.85,61,97.85,61L40.39,74.54L7.32,70.91V79.1z"/>
<path style="fill:#FFFFFF;" d="M7.49,69.47c0,0-2.6,3.12-2.14,9.07c0.41,5.28,5.37,13.06,14.04,15.87c7.67,2.49,13.3-0.37,21.24,2.2
	s15.26,10.37,25.39,9.76s15.51-7.85,22.82-8.91c10.98-1.59,16.23,1.36,24.53-6.83c9.15-9.03,9.2-17.44,9.15-19.53
	c-0.1-4.22-3.09-6.5-3.09-6.5L18.65,68.29L7.49,69.47z"/>
<radialGradient id="SVGID_1_" cx="64.2144" cy="44.0949" r="65.5759" gradientTransform="matrix(1 -6.535808e-03 4.261221e-03 0.652 -0.1865 15.7662)" gradientUnits="userSpaceOnUse">
	<stop  offset="0.1616" style="stop-color:#F1B14A"/>
	<stop  offset="0.1688" style="stop-color:#F1B049"/>
	<stop  offset="0.3704" style="stop-color:#E89825"/>
	<stop  offset="0.5354" style="stop-color:#E28810"/>
	<stop  offset="0.6425" style="stop-color:#E08308"/>
	<stop  offset="0.7125" style="stop-color:#E1860D"/>
	<stop  offset="0.7924" style="stop-color:#E5901B"/>
	<stop  offset="0.877" style="stop-color:#EBA031"/>
	<stop  offset="0.947" style="stop-color:#F1B14A"/>
</radialGradient>
<path style="fill:url(#SVGID_1_);" d="M64.64,13.48C25,13.48,5.14,34.21,3.58,57.85c-0.6,9.1,2.36,15.06,8.81,20.74
	c11.26,9.9,31.81,16.1,53.04,16.33c22.75,0.25,40.01-5.51,53.22-22.94c4.31-5.68,4.78-8.91,4.96-15.23
	C124.16,36.93,106.33,13.48,64.64,13.48z"/>
<path style="fill:#FCDE8C;" d="M44.31,49.96c-0.45-0.99,3.03-2.2,4.76-3.46c1.9-1.39,2.25-3.03,2.94-3.12
	c0.69-0.09,3.72,0.85,11.51,0.95c6.84,0.09,11.17-1.73,11.77-1.21c0.61,0.52,1.47,1.99,3.38,3.9c1.65,1.65,3.55,2.77,3.64,3.38
	c0.09,0.61-4.29,1.54-5.06,1.71c-0.78,0.17-25.77,0.1-25.77,0.1s-1.46-0.43-2.67-0.77C47.6,51.08,44.74,50.91,44.31,49.96z"/>
<path style="fill:#FFFFFF;" d="M63.78,55.93c4.41,0,6.82-1.29,9.78-2.34c3.09-1.09,5.63-1.99,5.63-1.99s-4.59-4.67-14.72-4.67
	s-14.54,4.76-14.54,4.76S58.59,55.93,63.78,55.93z"/>
<path style="fill:#F5E5C7;" d="M37.38,29c-1.19,0.27-1.23,2.09-1.59,3.81c-0.73,3.46,0.91,6.26,4.02,5.37
	c3.56-1.02,2.75-4.51,0.66-6.83C39.25,30.01,38.6,28.72,37.38,29z"/>
<path style="fill:#F5E5C7;" d="M54.08,26.55c-0.32,0.86-3.13,1.45-5.99,1.13c-2.12-0.24-3.9-2.36-2.77-4.72
	c1.15-2.39,4.01-2.67,5.95-0.77C53.26,24.14,54.43,25.6,54.08,26.55z"/>
<path style="fill:#F5E5C7;" d="M60.21,25c-0.68-0.14-2.91,1.77-3.4,3.9c-0.56,2.38,1.04,3.36,2.36,3.5
	c1.63,0.17,2.81-1.09,2.91-2.72C62.16,28.06,60.94,25.15,60.21,25z"/>
<path style="fill:#F5E5C7;" d="M25.66,50.06c0.47,1.13,2.27,0.84,4.03,0.89c3.53,0.1,6-2,4.58-4.91c-1.63-3.33-4.93-1.9-6.83,0.56
	C26.33,48.04,25.18,48.91,25.66,50.06z"/>
<path style="fill:#F5E5C7;" d="M13.42,49.89c-1.22-0.06-1.73,1.69-2.53,3.26c-1.61,3.14-0.77,6.28,2.46,6.24
	c3.7-0.04,3.83-3.63,2.43-6.41C14.96,51.36,14.67,49.94,13.42,49.89z"/>
<path style="fill:#F5E5C7;" d="M104.1,47.44c1.21-0.15,1.42-1.96,1.96-3.64c1.06-3.37-0.29-6.32-3.47-5.74
	c-3.65,0.66-3.18,4.22-1.33,6.73C102.34,46.25,102.86,47.59,104.1,47.44z"/>
<path style="fill:#F5E5C7;" d="M38.35,65.69c-0.58-0.42-2.42,0.13-4.06,0.78c-3.28,1.3-4.72,4.21-2.27,6.31
	c2.81,2.41,5.28-0.2,6.06-3.21C38.54,67.82,39.05,66.2,38.35,65.69z"/>
<path style="fill:#F5E5C7;" d="M32.58,62.34c0.28-0.56-0.47-2.08-1.22-3.29c-0.87-1.41-1.86-2.85-3.24-3.24
	c-4.44-1.25-6.04,4.41-3.06,6.22c1.09,0.66,2.24,0.7,3.51,0.77C30.47,62.88,32.31,62.88,32.58,62.34z"/>
<path style="fill:#F5E5C7;" d="M22.49,46.03c-0.18,1.13-5.13,2.07-7.66,0.54c-3.03-1.84-1.4-6.08,2.21-5.77
	C20.13,41.08,22.69,44.75,22.49,46.03z"/>
<path style="fill:#F5E5C7;" d="M25.05,39.86c1.17,0.32,4.55-2.21,5.54-4.05c0.72-1.34,1.3-4.67-1.04-5.72
	c-2.61-1.17-4.84,0.55-5.5,2.7C23.21,35.63,24.01,39.58,25.05,39.86z"/>
<path style="fill:#F5E5C7;" d="M45.05,53.65c0.19,0.87-1.49,5.63-5.41,5.81c-2.7,0.12-5.04-3.51-1.67-5.86
	C40.53,51.83,44.92,53.02,45.05,53.65z"/>
<path style="fill:#F5E5C7;" d="M48.43,61.24c-0.77-0.65-4.82,2.25-6.04,4.37c-0.72,1.26-1.22,3.56,1.76,4.91
	c2.88,1.31,4.46-0.9,4.82-2.7C49.33,66.02,49.02,61.74,48.43,61.24z"/>
<path style="fill:#F5E5C7;" d="M52.49,75.54c0.99,1.85,6.12,1.05,7.34,0.68c1.76-0.54,4.25-2.18,2.66-5.59
	c-1.31-2.79-4.73-2.21-6.8-0.45C53.9,71.69,51.81,74.28,52.49,75.54z"/>
<path style="fill:#F5E5C7;" d="M69.02,69.01c-1.06,0.78-0.22,5.55,0.41,6.98c0.81,1.85,3.42,2.57,5.18,1.22
	c2.03-1.56,1.71-4.14,0.41-5.54C74.03,70.62,70.05,68.24,69.02,69.01z"/>
<path style="fill:#F5E5C7;" d="M76.63,66.08c-0.39,0.35-3.87,0.59-6.35-1.53c-1.43-1.22-1.39-4.11,0.05-5.18
	c1.58-1.17,3.74-0.81,5.13,1.22C76.33,61.84,77.08,65.67,76.63,66.08z"/>
<path style="fill:#F5E5C7;" d="M81.9,64.37c0.7,0.61,5.13-0.14,6.8-2.07c0.91-1.06,2.21-3.33,0.45-4.95s-3.83-1.31-5.63,0.9
	C82.18,59.88,81.18,63.74,81.9,64.37z"/>
<path style="fill:#F5E5C7;" d="M99.06,51.08c-0.34,1.36-5.31,1.92-7.3,0.99c-2.03-0.95-1.67-3.24-1.26-4.23
	c0.41-0.99,1.4-2.16,4.01-1.44C97.27,47.16,99.29,50.18,99.06,51.08z"/>
<path style="fill:#F5E5C7;" d="M92.12,66.48c-1.11-0.31-1.76,1.21-2.48,1.89c-0.9,0.86-4.68,5.23,0.14,6.35
	c4.83,1.13,3.51-4.19,3.33-5.27C92.99,68.7,92.93,66.71,92.12,66.48z"/>
<path style="fill:#F5E5C7;" d="M97.3,63.65c-0.4,1.15,1.85,3.42,2.93,4.73c1.08,1.31,3.47,2.52,4.86-0.09
	c1.4-2.61-0.77-4.23-2.7-4.68C100.46,63.15,97.66,62.61,97.3,63.65z"/>
<path style="fill:#F5E5C7;" d="M114.56,54.37c0,0.77-2.7,2.93-5.72,3.02c-2.25,0.07-3.92-0.75-3.92-2.97c0-2.25,2.03-3.51,4.55-2.97
	C110.92,51.75,114.56,53.15,114.56,54.37z"/>
<path style="fill:#F5E5C7;" d="M109.33,47.84c0.23,0.9,2.93,1.17,4.86,1.22c1.94,0.05,4.32-0.63,3.42-3.29
	c-0.9-2.66-3.56-1.98-4.55-1.49C112.08,44.77,109.03,46.62,109.33,47.84z"/>
<path style="fill:#F5E5C7;" d="M100.91,30.04c-0.81,1.17,0.72,3.6,2.12,4.68c1.4,1.08,3.33,1.76,4.46-0.14
	c1.13-1.89-0.86-3.6-2.07-4.37C104.2,29.46,101.7,28.9,100.91,30.04z"/>
<path style="fill:#F5E5C7;" d="M96.36,32.25c-0.53-0.33-3.33,0.38-4.95,1.85c-1.68,1.52-2.3,3.74-0.27,5.32
	c1.96,1.52,4.09,0.04,4.95-1.98C96.9,35.54,96.96,32.62,96.36,32.25z"/>
<path style="fill:#F5E5C7;" d="M74.47,30.99c0.54-0.75-0.45-4.77-1.71-6.31c-1.26-1.53-2.84-2.12-4.59-0.81
	c-1.38,1.03-1.89,3.83,0.09,5.27C70.41,30.72,73.88,31.8,74.47,30.99z"/>
<path style="fill:#F5E5C7;" d="M76.04,24.77c0.67,0.49,3.11,0.14,4.77-0.95s1.91-2.82,0.95-4.01c-1.17-1.44-3.06-0.9-4.41,0.86
	C76.17,22.2,75.19,24.14,76.04,24.77z"/>
<path style="fill:#F5E5C7;" d="M80.05,30.58c0.54,1.44,5.95,1.13,7.52,0.45c1.58-0.68,2.68-2.11,1.8-4.19
	c-0.99-2.34-2.55-2.35-3.69-2.03C83.43,25.45,79.52,29.17,80.05,30.58z"/>
</svg>
